FINK
CUT[SONNE MIT EILENDEM FLUEGEL]
REG[Europa, Mitteleuropa, Deutschland]
KEY[F0995  16 Eb 6/8]
MEL[  -5_.-6-5_-5_-3_-4_  -5__1_-5__0_
    -5_-3_-4_-5_-4_-3_  -2__.^__0_
    -5_.-6-5_-5_-3_-4_  -5__1_-5__0_
    -5_-3_-4_-5_-4_-3_  -2__.^__0_
    -5_.-4#-5_-6_-5_-6_  -7__.1__.
    -7_.1-7_-6_-7_-6_  -5___.
    -5_-3_-4_-5_-3_-4_  -5__1_3__1_
    -5_.-6-5_-5_-6_-7_  1__.^__0_ //] >>
FCT[Natur -, Tageszeiten - Lied, Abend]
